assets/images/btn_google_play_en_patch.svg

<svg width="127" height="50" viewBox="0 0 127 50" fill="none" xmlns="http://www.w3.org/2000/svg">
<path fill-rule="evenodd" clip-rule="evenodd" d="M122.296 50H4.7037C2.06963 50 0 47.25 0 43.75V6.25C0 2.75 2.06963 0 4.7037 0H122.296C124.93 0 127 2.75 127 6.25V43.75C127 47.25 124.93 50 122.296 50V50Z" fill="#004177"/>
<path opacity="0.7" d="M54.5469 15.3633V21H56.4414C58.1172 21 59.1016 19.957 59.1016 18.1797C59.1016 16.4062 58.1133 15.3633 56.4414 15.3633H54.5469ZM55.25 15.9961H56.3945C57.6758 15.9961 58.3828 16.7773 58.3828 18.1875C58.3828 19.5859 57.6719 20.3672 56.3945 20.3672H55.25V15.9961ZM63.0664 19.8359C62.9531 20.2188 62.5742 20.4805 62.0586 20.4805C61.3281 20.4805 60.8711 19.9688 60.8711 19.1914V19.1523H63.7852V18.8945C63.7852 17.6641 63.1094 16.8672 62.0117 16.8672C60.8906 16.8672 60.1719 17.7227 60.1719 18.9844C60.1719 20.2617 60.8789 21.0703 62.043 21.0703C62.9297 21.0703 63.6172 20.5469 63.7344 19.8359H63.0664ZM62 17.457C62.6406 17.457 63.0664 17.9414 63.082 18.6211H60.875C60.918 17.9453 61.3633 17.457 62 17.457ZM68.3047 16.9375H67.5977L66.4727 20.2773H66.457L65.3359 16.9375H64.6211L66.1172 21H66.8125L68.3047 16.9375ZM71.918 19.8359C71.8047 20.2188 71.4258 20.4805 70.9102 20.4805C70.1797 20.4805 69.7227 19.9688 69.7227 19.1914V19.1523H72.6367V18.8945C72.6367 17.6641 71.9609 16.8672 70.8633 16.8672C69.7422 16.8672 69.0234 17.7227 69.0234 18.9844C69.0234 20.2617 69.7305 21.0703 70.8945 21.0703C71.7812 21.0703 72.4688 20.5469 72.5859 19.8359H71.918ZM70.8516 17.457C71.4922 17.457 71.918 17.9414 71.9336 18.6211H69.7266C69.7695 17.9453 70.2148 17.457 70.8516 17.457ZM73.8594 21H74.5391V15.3633H73.8594V21ZM77.6406 21.0703C78.7617 21.0703 79.5195 20.2617 79.5195 18.9688C79.5195 17.6719 78.7617 16.8672 77.6406 16.8672C76.5156 16.8672 75.7578 17.6719 75.7578 18.9688C75.7578 20.2617 76.5156 21.0703 77.6406 21.0703ZM77.6406 20.4727C76.9219 20.4727 76.4492 19.9258 76.4492 18.9688C76.4492 18.0117 76.9219 17.4648 77.6406 17.4648C78.3594 17.4648 78.8281 18.0117 78.8281 18.9688C78.8281 19.9258 78.3594 20.4727 77.6406 20.4727ZM82.6797 16.8672C82.0898 16.8672 81.6172 17.168 81.3672 17.625H81.3516V16.9375H80.707V22.3555H81.3867V20.3398H81.4023C81.6445 20.7852 82.1133 21.0703 82.6953 21.0703C83.7188 21.0703 84.418 20.2422 84.418 18.9688C84.418 17.6953 83.7148 16.8672 82.6797 16.8672ZM82.5469 20.4727C81.8516 20.4727 81.3828 19.875 81.3828 18.9688C81.3828 18.0664 81.8516 17.4648 82.5469 17.4648C83.2695 17.4648 83.7227 18.0508 83.7227 18.9688C83.7227 19.8906 83.2695 20.4727 82.5469 20.4727ZM85.6055 21H86.2852V18.4531C86.2852 17.8906 86.6758 17.4688 87.2148 17.4688C87.7188 17.4688 88.0469 17.7891 88.0469 18.2773V21H88.7266V18.418C88.7266 17.8672 89.1055 17.4688 89.6445 17.4688C90.1797 17.4688 90.4883 17.7969 90.4883 18.3516V21H91.168V18.1953C91.168 17.3906 90.6484 16.8672 89.8438 16.8672C89.2734 16.8672 88.7969 17.1562 88.5703 17.6406H88.5547C88.3789 17.1484 87.9688 16.8672 87.4141 16.8672C86.8672 16.8672 86.4531 17.1562 86.2617 17.5859H86.2461V16.9375H85.6055V21ZM95.2305 19.8359C95.1172 20.2188 94.7383 20.4805 94.2227 20.4805C93.4922 20.4805 93.0352 19.9688 93.0352 19.1914V19.1523H95.9492V18.8945C95.9492 17.6641 95.2734 16.8672 94.1758 16.8672C93.0547 16.8672 92.3359 17.7227 92.3359 18.9844C92.3359 20.2617 93.043 21.0703 94.207 21.0703C95.0938 21.0703 95.7812 20.5469 95.8984 19.8359H95.2305ZM94.1641 17.457C94.8047 17.457 95.2305 17.9414 95.2461 18.6211H93.0391C93.082 17.9453 93.5273 17.457 94.1641 17.457ZM97.1367 21H97.8164V18.6094C97.8164 17.9219 98.2344 17.4688 98.875 17.4688C99.5 17.4688 99.8086 17.8281 99.8086 18.4844V21H100.488V18.3633C100.488 17.4414 99.9727 16.8672 99.082 16.8672C98.4531 16.8672 98.0195 17.1484 97.793 17.5859H97.7773V16.9375H97.1367V21ZM102.074 15.957V16.9375H101.469V17.4961H102.074V19.9453C102.074 20.7266 102.363 21.0312 103.109 21.0312C103.27 21.0312 103.457 21.0195 103.539 21V20.4297C103.492 20.4375 103.336 20.4492 103.258 20.4492C102.91 20.4492 102.754 20.2812 102.754 19.9102V17.4961H103.543V16.9375H102.754V15.957H102.074ZM54.8164 25.2148C55.0547 25.2148 55.2422 25.0234 55.2422 24.7891C55.2422 24.5508 55.0547 24.3633 54.8164 24.3633C54.582 24.3633 54.3906 24.5508 54.3906 24.7891C54.3906 25.0234 54.582 25.2148 54.8164 25.2148ZM54.4766 30H55.1562V25.9375H54.4766V30ZM56.5742 30H57.2539V27.6094C57.2539 26.9219 57.6719 26.4688 58.3125 26.4688C58.9375 26.4688 59.2461 26.8281 59.2461 27.4844V30H59.9258V27.3633C59.9258 26.4414 59.4102 25.8672 58.5195 25.8672C57.8906 25.8672 57.457 26.1484 57.2305 26.5859H57.2148V25.9375H56.5742V30ZM65.4062 25.8672C64.8164 25.8672 64.3438 26.168 64.0938 26.625H64.0781V25.9375H63.4336V31.3555H64.1133V29.3398H64.1289C64.3711 29.7852 64.8398 30.0703 65.4219 30.0703C66.4453 30.0703 67.1445 29.2422 67.1445 27.9688C67.1445 26.6953 66.4414 25.8672 65.4062 25.8672ZM65.2734 29.4727C64.5781 29.4727 64.1094 28.875 64.1094 27.9688C64.1094 27.0664 64.5781 26.4648 65.2734 26.4648C65.9961 26.4648 66.4492 27.0508 66.4492 27.9688C66.4492 28.8906 65.9961 29.4727 65.2734 29.4727ZM68.332 30H69.0117V27.4688C69.0117 26.8945 69.3555 26.5156 69.8828 26.5156C70.0469 26.5156 70.1914 26.5352 70.2461 26.5547V25.8945C70.1914 25.8867 70.0898 25.8672 69.9727 25.8672C69.4961 25.8672 69.1211 26.1523 68.9883 26.6016H68.9727V25.9375H68.332V30ZM72.7891 30.0703C73.9102 30.0703 74.668 29.2617 74.668 27.9688C74.668 26.6719 73.9102 25.8672 72.7891 25.8672C71.6641 25.8672 70.9062 26.6719 70.9062 27.9688C70.9062 29.2617 71.6641 30.0703 72.7891 30.0703ZM72.7891 29.4727C72.0703 29.4727 71.5977 28.9258 71.5977 27.9688C71.5977 27.0117 72.0703 26.4648 72.7891 26.4648C73.5078 26.4648 73.9766 27.0117 73.9766 27.9688C73.9766 28.9258 73.5078 29.4727 72.7891 29.4727ZM77.5312 31.5312C78.6523 31.5312 79.3672 30.8867 79.3672 29.918V25.9375H78.7188V26.6211H78.707C78.4375 26.1484 77.9609 25.8672 77.3867 25.8672C76.3359 25.8672 75.6562 26.6797 75.6562 27.9531C75.6562 29.2148 76.3359 30.0312 77.3711 30.0312C77.9414 30.0312 78.4219 29.7422 78.6719 29.3008H78.6875V29.9414C78.6875 30.5469 78.2617 30.9531 77.5586 30.9531C77.0508 30.9531 76.6484 30.707 76.5156 30.3359H75.8164C75.9297 31.0273 76.6367 31.5312 77.5312 31.5312ZM77.5078 29.4336C76.8086 29.4336 76.3516 28.8633 76.3516 27.9531C76.3516 27.043 76.8086 26.4648 77.5078 26.4648C78.2148 26.4648 78.6875 27.0586 78.6875 27.9531C78.6875 28.8477 78.2148 29.4336 77.5078 29.4336ZM80.7539 30H81.4336V27.4688C81.4336 26.8945 81.7773 26.5156 82.3047 26.5156C82.4688 26.5156 82.6133 26.5352 82.668 26.5547V25.8945C82.6133 25.8867 82.5117 25.8672 82.3945 25.8672C81.918 25.8672 81.543 26.1523 81.4102 26.6016H81.3945V25.9375H80.7539V30ZM86.2227 28.8359C86.1094 29.2188 85.7305 29.4805 85.2148 29.4805C84.4844 29.4805 84.0273 28.9688 84.0273 28.1914V28.1523H86.9414V27.8945C86.9414 26.6641 86.2656 25.8672 85.168 25.8672C84.0469 25.8672 83.3281 26.7227 83.3281 27.9844C83.3281 29.2617 84.0352 30.0703 85.1992 30.0703C86.0859 30.0703 86.7734 29.5469 86.8906 28.8359H86.2227ZM85.1562 26.457C85.7969 26.457 86.2227 26.9414 86.2383 27.6211H84.0312C84.0742 26.9453 84.5195 26.457 85.1562 26.457ZM88.0586 27.0586C88.0586 27.6445 88.4297 28 89.1953 28.1836L89.8398 28.3398C90.3047 28.4531 90.4648 28.6211 90.4648 28.9141C90.4648 29.2812 90.125 29.5156 89.5742 29.5156C89.0234 29.5156 88.7109 29.293 88.6289 28.8281H87.9492C88.0273 29.5898 88.6211 30.0703 89.5742 30.0703C90.4805 30.0703 91.1484 29.5703 91.1484 28.8633C91.1484 28.2812 90.8516 27.9609 90.0312 27.7617L89.3867 27.6055C88.9336 27.4961 88.7266 27.3047 88.7266 27.0234C88.7266 26.668 89.0547 26.4219 89.5508 26.4219C90.0508 26.4219 90.3633 26.6836 90.4141 27.1094H91.0625C91.0352 26.3906 90.4414 25.8672 89.5508 25.8672C88.6719 25.8672 88.0586 26.3633 88.0586 27.0586ZM92.2852 27.0586C92.2852 27.6445 92.6562 28 93.4219 28.1836L94.0664 28.3398C94.5312 28.4531 94.6914 28.6211 94.6914 28.9141C94.6914 29.2812 94.3516 29.5156 93.8008 29.5156C93.25 29.5156 92.9375 29.293 92.8555 28.8281H92.1758C92.2539 29.5898 92.8477 30.0703 93.8008 30.0703C94.707 30.0703 95.375 29.5703 95.375 28.8633C95.375 28.2812 95.0781 27.9609 94.2578 27.7617L93.6133 27.6055C93.1602 27.4961 92.9531 27.3047 92.9531 27.0234C92.9531 26.668 93.2812 26.4219 93.7773 26.4219C94.2773 26.4219 94.5898 26.6836 94.6406 27.1094H95.2891C95.2617 26.3906 94.668 25.8672 93.7773 25.8672C92.8984 25.8672 92.2852 26.3633 92.2852 27.0586Z" fill="white"/>
<g opacity="0.7">
<path fill-rule="evenodd" clip-rule="evenodd" d="M21.4005 11C21.1005 11.3 21.0005 11.8 21.0005 12.4V34.5C21.0005 35.1 21.2005 35.6 21.5005 35.9L21.6005 36L34.0005 23.6V23.4L21.4005 11V11Z" fill="white"/>
<path fill-rule="evenodd" clip-rule="evenodd" d="M39.1005 27.5L35.0005 23.4V23.1L39.1005 19L39.2005 19.1L44.1005 21.9C45.5005 22.7 45.5005 24 44.1005 24.8L39.1005 27.5V27.5Z" fill="white"/>
<path fill-rule="evenodd" clip-rule="evenodd" d="M38.7005 28.2L34.5005 24L22.0005 36.5C22.5005 37 23.2005 37 24.1005 36.6L38.7005 28.2" fill="white"/>
<path fill-rule="evenodd" clip-rule="evenodd" d="M38.7005 18.6287L24.1005 10.3287C23.2005 9.82873 22.5005 9.92873 22.0005 10.4287L34.5005 22.8287L38.7005 18.6287V18.6287Z" fill="white"/>
<path fill-rule="evenodd" clip-rule="evenodd" d="M21.6603 35.2999C21.3603 34.9999 21.2603 34.4999 21.2603 33.8999V33.9999C21.2603 34.5999 21.4603 35.0999 21.7603 35.3999V35.2999H21.6603V35.2999Z" fill="black"/>
</g>
</svg>

<svg width="127" height="50" fill="none" xmlns="http://www.w3.org/2000/svg"><path fill-rule="evenodd" clip-rule="evenodd" d="M122.296 50H4.704C2.07 50 0 47.25 0 43.75V6.25C0 2.75 2.07 0 4.704 0h117.592C124.93 0 127 2.75 127 6.25v37.5c0 3.5-2.07 6.25-4.704 6.25z" fill="#004177"/><path opacity=".7" d="M54.547 15.363V21h1.894c1.676 0 2.66-1.043 2.66-2.82 0-1.774-.988-2.817-2.66-2.817h-1.894zm.703.633h1.145c1.28 0 1.988.781 1.988 2.191 0 1.399-.711 2.18-1.989 2.18H55.25v-4.37zm7.816 3.84c-.113.383-.492.645-1.007.645-.73 0-1.188-.512-1.188-1.29v-.039h2.914v-.258c0-1.23-.676-2.027-1.773-2.027-1.121 0-1.84.856-1.84 2.117 0 1.278.707 2.086 1.871 2.086.887 0 1.574-.523 1.691-1.234h-.668zM62 17.457c.64 0 1.066.484 1.082 1.164h-2.207c.043-.676.488-1.164 1.125-1.164zm6.305-.52h-.707l-1.125 3.34h-.016l-1.121-3.34h-.715L66.117 21h.695l1.493-4.063zm3.613 2.899c-.113.383-.492.645-1.008.645-.73 0-1.187-.512-1.187-1.29v-.039h2.914v-.258c0-1.23-.676-2.027-1.774-2.027-1.12 0-1.84.856-1.84 2.117 0 1.278.708 2.086 1.871 2.086.887 0 1.575-.523 1.692-1.234h-.668zm-1.066-2.379c.64 0 1.066.484 1.082 1.164h-2.207c.042-.676.488-1.164 1.125-1.164zM73.859 21h.68v-5.637h-.68V21zm3.782.07c1.12 0 1.878-.808 1.878-2.101 0-1.297-.757-2.102-1.878-2.102-1.125 0-1.883.805-1.883 2.102 0 1.293.758 2.101 1.883 2.101zm0-.597c-.72 0-1.192-.547-1.192-1.504s.473-1.504 1.192-1.504c.718 0 1.187.547 1.187 1.504s-.469 1.504-1.187 1.504zm5.039-3.606c-.59 0-1.063.301-1.313.758h-.015v-.688h-.645v5.418h.68V20.34h.015c.242.445.711.73 1.293.73 1.024 0 1.723-.828 1.723-2.101 0-1.274-.703-2.102-1.738-2.102zm-.133 3.606c-.695 0-1.164-.598-1.164-1.504 0-.903.469-1.504 1.164-1.504.722 0 1.176.586 1.176 1.504 0 .922-.454 1.504-1.176 1.504zm3.059.527h.68v-2.547c0-.562.39-.984.929-.984.504 0 .832.32.832.808V21h.68v-2.582c0-.55.379-.95.917-.95.536 0 .844.329.844.884V21h.68v-2.805c0-.804-.52-1.328-1.324-1.328-.57 0-1.047.29-1.274.774h-.015c-.176-.493-.586-.774-1.14-.774-.548 0-.962.29-1.153.719h-.016v-.648h-.64V21zm9.625-1.164c-.114.383-.493.645-1.008.645-.73 0-1.188-.512-1.188-1.29v-.039h2.914v-.258c0-1.23-.676-2.027-1.773-2.027-1.121 0-1.84.856-1.84 2.117 0 1.278.707 2.086 1.871 2.086.887 0 1.574-.523 1.691-1.234h-.667zm-1.067-2.379c.64 0 1.067.484 1.082 1.164H93.04c.043-.676.488-1.164 1.125-1.164zM97.137 21h.68v-2.39c0-.688.417-1.141 1.058-1.141.625 0 .934.36.934 1.015V21h.679v-2.637c0-.922-.515-1.496-1.406-1.496-.629 0-1.063.281-1.289.719h-.016v-.648h-.64V21zm4.937-5.043v.98h-.605v.56h.605v2.448c0 .782.289 1.086 1.035 1.086.161 0 .348-.011.43-.031v-.57c-.047.008-.203.02-.281.02-.348 0-.504-.169-.504-.54v-2.414h.789v-.558h-.789v-.981h-.68zm-47.258 9.258a.424.424 0 00.426-.426.422.422 0 00-.426-.426.427.427 0 000 .852zM54.476 30h.68v-4.063h-.68V30zm2.098 0h.68v-2.39c0-.688.418-1.141 1.059-1.141.624 0 .933.36.933 1.015V30h.68v-2.637c0-.922-.516-1.496-1.407-1.496-.628 0-1.062.281-1.288.719h-.016v-.648h-.64V30zm8.832-4.133c-.59 0-1.062.301-1.312.758h-.016v-.688h-.644v5.418h.68V29.34h.015c.242.445.71.73 1.293.73 1.023 0 1.722-.828 1.722-2.101 0-1.274-.703-2.102-1.738-2.102zm-.133 3.606c-.695 0-1.164-.598-1.164-1.504 0-.903.47-1.504 1.164-1.504.723 0 1.176.586 1.176 1.504 0 .922-.453 1.504-1.176 1.504zm3.059.527h.68v-2.531c0-.575.344-.953.87-.953.165 0 .31.02.364.039v-.66c-.055-.008-.156-.028-.273-.028a.995.995 0 00-.985.735h-.015v-.665h-.641V30zm4.457.07c1.121 0 1.879-.808 1.879-2.101 0-1.297-.758-2.102-1.879-2.102-1.125 0-1.883.805-1.883 2.102 0 1.293.758 2.101 1.883 2.101zm0-.597c-.719 0-1.191-.547-1.191-1.504s.472-1.504 1.191-1.504c.719 0 1.188.547 1.188 1.504s-.47 1.504-1.188 1.504zm4.742 2.058c1.121 0 1.836-.644 1.836-1.613v-3.98h-.648v.683h-.012a1.477 1.477 0 00-1.32-.754c-1.051 0-1.73.813-1.73 2.086 0 1.262.679 2.078 1.714 2.078.57 0 1.05-.289 1.3-.73h.016v.64c0 .606-.425 1.012-1.128 1.012-.508 0-.91-.246-1.043-.617h-.7c.114.691.82 1.195 1.715 1.195zm-.023-2.097c-.7 0-1.156-.57-1.156-1.48 0-.911.457-1.49 1.156-1.49.707 0 1.18.595 1.18 1.49 0 .894-.473 1.48-1.18 1.48zm3.246.566h.68v-2.531c0-.575.343-.953.87-.953.165 0 .31.02.364.039v-.66c-.055-.008-.156-.028-.274-.028a.995.995 0 00-.984.735h-.016v-.665h-.64V30zm5.469-1.164c-.114.383-.492.645-1.008.645-.73 0-1.188-.512-1.188-1.29v-.039h2.914v-.258c0-1.23-.675-2.027-1.773-2.027-1.121 0-1.84.856-1.84 2.117 0 1.278.707 2.086 1.871 2.086.887 0 1.574-.523 1.692-1.234h-.668zm-1.067-2.379c.64 0 1.067.484 1.082 1.164h-2.207c.043-.676.488-1.164 1.125-1.164zm2.903.602c0 .585.37.941 1.136 1.125l.645.156c.465.113.625.281.625.574 0 .367-.34.602-.89.602-.552 0-.864-.223-.946-.688h-.68c.078.762.672 1.242 1.625 1.242.907 0 1.574-.5 1.574-1.207 0-.582-.296-.902-1.117-1.101l-.644-.157c-.453-.109-.66-.3-.66-.582 0-.355.328-.601.824-.601.5 0 .812.262.863.687h.648c-.027-.718-.62-1.242-1.511-1.242-.88 0-1.492.496-1.492 1.192zm4.226 0c0 .585.371.941 1.137 1.125l.644.156c.465.113.625.281.625.574 0 .367-.34.602-.89.602-.551 0-.864-.223-.945-.688h-.68c.078.762.672 1.242 1.625 1.242.906 0 1.574-.5 1.574-1.207 0-.582-.297-.902-1.117-1.101l-.645-.157c-.453-.109-.66-.3-.66-.582 0-.355.328-.601.824-.601.5 0 .813.262.864.687h.648c-.027-.718-.621-1.242-1.512-1.242-.879 0-1.492.496-1.492 1.192z" fill="#fff"/><g opacity=".7" fill-rule="evenodd" clip-rule="evenodd"><path d="M21.4 11c-.3.3-.4.8-.4 1.4v22.1c0 .6.2 1.1.5 1.4l.1.1L34 23.6v-.2L21.4 11zm17.7 16.5L35 23.4v-.3l4.1-4.1.1.1 4.9 2.8c1.4.8 1.4 2.1 0 2.9l-5 2.7zm-.4.7L34.5 24 22 36.5c.5.5 1.2.5 2.1.1l14.6-8.4m0-9.571l-14.6-8.3c-.9-.5-1.6-.4-2.1.1l12.5 12.4 4.2-4.2z" fill="#fff"/><path d="M21.66 35.3c-.3-.3-.4-.8-.4-1.4v.1c0 .6.2 1.1.5 1.4v-.1h-.1z" fill="#000"/></g></svg>
